src/_assets/sidebar/treasury-proposal.svg

<svg width="20" height="21" viewBox="0 0 20 21" fill="none" xmlns="http://www.w3.org/2000/svg">
<path d="M10.4166 3.5H4.55556C4.143 3.5 3.74733 3.66389 3.45561 3.95561C3.16389 4.24733 3 4.643 3 5.05556V15.9444C3 16.357 3.16389 16.7527 3.45561 17.0444C3.74733 17.3361 4.143 17.5 4.55556 17.5H15.4444C15.857 17.5 16.2527 17.3361 16.5444 17.0444C16.8361 16.7527 17 16.357 17 15.9444V11.5" stroke="#485F7D" stroke-width="1.4667" stroke-linecap="round" stroke-linejoin="round"/>
<path fill-rule="evenodd" clip-rule="evenodd" d="M17.9567 5.04318L18.5417 4.45816C19.117 3.88287 19.117 2.95013 18.5417 2.37483C17.9664 1.79953 17.0336 1.79954 16.4583 2.37483L15.918 2.91516C16.4701 3.73487 17.1597 4.45524 17.9567 5.04318ZM16.5295 6.47038C15.7515 5.86168 15.0625 5.14795 14.4822 4.35092L9.48292 9.35024C9.11844 9.71472 8.93621 9.89696 8.80693 10.1167C8.67766 10.3364 8.60685 10.5842 8.46525 11.0798L8.16391 12.1345C8.05456 12.5172 7.99988 12.7086 8.1039 12.8126C8.20791 12.9166 8.39929 12.862 8.78204 12.7526L9.83673 12.4513C10.3323 12.3096 10.5801 12.2388 10.7998 12.1096C11.0195 11.9803 11.2018 11.7981 11.5662 11.4336L16.5295 6.47038Z" fill="#485F7D"/>
</svg>

<svg xmlns="http://www.w3.org/2000/svg" width="20" height="21" fill="none"><path stroke="#485F7D" stroke-linecap="round" stroke-linejoin="round" stroke-width="1.467" d="M10.417 3.5H4.556A1.556 1.556 0 003 5.056v10.888A1.556 1.556 0 004.556 17.5h10.888A1.556 1.556 0 0017 15.944V11.5"/><path fill="#485F7D" fill-rule="evenodd" d="M17.957 5.043l.585-.585a1.473 1.473 0 10-2.084-2.083l-.54.54a8.7 8.7 0 002.039 2.128M16.529 6.47a10.7 10.7 0 01-2.047-2.12l-5 5c-.364.365-.546.547-.675.767-.13.22-.2.467-.342.963l-.301 1.054c-.11.383-.164.575-.06.679s.295.049.678-.06l1.055-.302c.495-.141.743-.212.963-.341s.402-.312.766-.676z" clip-rule="evenodd"/></svg>
